svg/set/PIP/T.svg

<?xml version="1.0" encoding="UTF-8" standalone="no"?>
<svg
   width="3000"
   height="3000"
   viewBox="0 0 3000 3000"
   version="1.1"
   xml:space="preserve"
   style="clip-rule:evenodd;fill-rule:evenodd;stroke-linecap:round;stroke-linejoin:round;stroke-miterlimit:1.5"
   id="svg19"
   xmlns="http://www.w3.org/2000/svg"
   xmlns:svg="http://www.w3.org/2000/svg"
   xmlns:serif="http://www.serif.com/">
    <g
   transform="scale(3)"
   id="g10">
        <rect
   id="M"
   x="0"
   y="0"
   width="1000"
   height="1000"
   style="fill:none" />
        <g
   id="M1"
   serif:id="M">
            <g
   id="Rings"
   transform="translate(1.33765,0.0946741)">
                <g
   transform="matrix(0.924534,0,0,0.933291,-49.6436,-50.6485)"
   id="g1">
                    <circle
   cx="593.06201"
   cy="655.29199"
   r="466.5"
   style="stroke:#000000;stroke-width:1.08px"
   id="circle1" />
                </g>
                <g
   transform="matrix(0.86292,0,0,0.868595,-14.0478,-8.49513)"
   id="g2">
                    <circle
   cx="593.06201"
   cy="655.29199"
   r="466.5"
   style="fill:url(#_Linear1);stroke:#000000;stroke-width:1.16px"
   id="circle2" />
                </g>
            </g>
            <g
   id="Head"
   transform="translate(1.33765,0.0946741)">
                <path
   d="m 745.225,677.052 c 0,0 -27.042,46.07 -59.591,74.614 0,0 23.035,53.081 -61.594,112.171 -84.63,59.09 -135.207,59.09 -193.295,14.021 0,0 -167.757,-21.019 -218.334,-168.257 0,0 -10.695,-28.65 -12.174,-41.073 0,0 -14.073,-46.809 -8.731,-123.891 0,0 1.145,-46.173 13.737,-94.253 12.592,-48.079 14.5,-59.527 22.895,-75.553 -12.185,2.15 -50.579,-67.283 -35.106,-120.962 0,0 -1.145,-9.716 11.066,-39.098 0,0 -7.632,-56.856 20.606,-96.54 0,0 8.394,-26.081 71.737,-63.343 0,0 -6.105,37.147 -3.434,60.805 0,0 3.434,32.053 25.566,27.474 0,0 24.04,-1.908 59.146,-54.185 0,0 22.132,-29.763 73.264,-33.961 0,0 28.619,3.435 39.685,11.066 0,0 38.539,-63.343 90.816,-62.579 0,0 53.804,-1.527 87.002,58.764 0,0 54.948,-6.487 91.961,23.658 0,0 32.816,22.513 46.553,66.395 0,0 66.014,27.093 79.37,95.778 0,0 10.303,45.79 -4.198,112.185 -14.5,66.396 -40.447,131.647 -67.158,171.713 0,0 33.137,67.511 4.579,103.409 -28.741,36.129 -72.273,43.737 -74.368,41.642 z"
   id="path2" />
            </g>
            <g
   id="Hair"
   transform="translate(1.33765,0.0946741)">
                <path
   d="m 277.17,273.13 c 0,0 -36.504,71.913 -35.774,71.913 0,0 -22.633,-17.522 -18.982,-79.214 0,0 0.607,-30.786 13.748,-47.578 0,0 -9.261,-31.103 4.565,-62.022 0,0 3.265,-16.131 21.509,-36.872 0,0 9.026,46.666 36.296,51.66 0,0 21.779,13.52 53.772,-9.411 33.223,-23.813 46.09,-53.003 54.347,-55.884 0,0 15.364,-18.436 40.329,-18.628 0,0 28.614,-3.072 52.235,24.774 0,0 20.741,-42.441 47.627,-62.414 0,0 19.396,-19.204 43.209,-13.827 0,0 29.657,0.452 61.261,59.533 0,0 59.445,-12.742 91.137,17.025 0,0 25.74,11.006 38.99,64.334 0,0 46.09,14.726 61.262,48.91 0,0 11.138,11.714 15.363,49.738 0,0 2.689,54.594 -8.258,90.836 -10.946,36.242 -18.052,58.903 -18.052,58.903 0,0 -23.224,-40.521 -73.168,-79.889 0,0 31.291,-22.469 37.052,-53.004 0,0 10.37,-47.982 -51.275,-60.877 0,0 -28.422,-5.981 -65.102,0.356 -36.68,6.338 -34.183,6.53 -34.183,6.53 0,0 -25.35,-42.427 -79.89,-75.281 0,0 -28.038,30.905 -49.354,33.593 0,0 -21.873,6.146 -29.17,0.192 l -17.668,-5.761 -13.827,-5.569 c 0,0 -25.734,-8.258 -41.097,-8.642 0,0 -29.382,-4.993 -55.116,31.303 0,0 -11.715,19.012 -37.64,45.706 0,0 -16.084,18.394 -44.146,19.567 z"
   style="fill:url(#_Linear2)"
   id="path3" />
            </g>
            <g
   id="Face"
   transform="translate(1.33765,0.0946741)">
                <path
   d="m 435.39,208.04 c 0,0 33.68,15.095 53.488,17.486 19.808,2.39 37.079,-2.333 37.079,-2.333 0,0 12.594,-1.078 42.259,-24.161 0,0 27.336,18.663 39.038,35.6 11.702,16.937 7.853,8.315 24.944,36.492 0,0 46.038,-15.397 81.913,-13.704 35.876,1.694 42.651,7.853 42.651,7.853 0,0 10.316,6.159 10.932,14.011 0,0 2.926,10.163 -4.157,20.017 -7.083,9.854 -10.47,12.78 -10.47,12.78 l -13.396,12.01 -34.49,22.172 16.783,9.392 c 0,0 26.945,16.013 48.502,37.569 21.556,21.557 22.788,24.79 22.788,24.79 l 14.781,21.556 10.778,17.707 -5.851,12.01 c 0,0 -30.002,-36.411 -87.764,-77.602 0,0 32.62,41.8 39.24,53.194 5.263,9.057 18.477,29.871 18.477,29.871 0,0 9.085,15.244 11.086,23.558 0,0 -50.832,-42.475 -64.515,-44.344 0,0 34.007,41.529 44.527,58.843 10.52,17.314 26.081,45.806 27.396,60.928 1.315,15.123 5.362,29.137 -7.671,45.149 -7.671,9.424 -15.561,16.437 -38.135,24.546 -22.574,8.11 -29.807,5.699 -29.807,5.699 0,0 -24.25,45.393 -55.01,74.516 -5.74,5.435 -14.465,19.726 -32.656,35.944 -18.191,16.218 -68.106,56.709 -68.106,56.709 0,0 55.226,-14.056 73.561,-28.736 0,0 5.61,10.839 -6.105,24.229 -11.716,13.389 -33.625,32.712 -55.839,44.884 -22.214,12.172 -49.144,22.213 -68.467,21.605 -19.323,-0.609 -30.278,-1.217 -32.712,-5.63 0,0 39.558,-20.388 52.339,-33.168 0,0 -36.409,16.659 -79.27,11.411 -7.455,-0.913 -54.123,-9.973 -77.152,-18.991 3.466,0.867 -26.046,-8.958 -38.613,-18.709 -12.567,-9.75 -33.368,-15.6 -64.569,-56.769 -31.202,-41.168 -41.819,-80.51 -46.585,-111.804 -4.767,-31.295 -7.801,-95.481 -0.867,-135.299 6.933,-39.817 20.367,-95.286 25.134,-106.337 4.767,-11.05 25.785,-77.452 43.335,-102.487 0,0 26.435,-7.701 41.819,-22.435 15.384,-14.733 19.284,-17.984 31.634,-33.584 12.351,-15.601 11.484,-16.901 11.484,-16.901 l 7.367,-9.317 6.934,-6.717 c 0,0 13.24,-12.639 41.938,-3.503 z"
   style="fill:#ffffff"
   id="path4" />
            </g>
            <g
   id="Eyes--Nose--Brows"
   serif:id="Eyes, Nose, Brows"
   transform="translate(1.33765,0.0946741)">
                <g
   transform="matrix(1.04616,0.094697,-0.10241,1.13138,12.5606,-69.5428)"
   id="g4">
                    <ellipse
   cx="339.27301"
   cy="402.84399"
   rx="21.107"
   ry="34.525002"
   id="ellipse4" />
                </g>
                <path
   d="m 288.492,360.459 c 0,0 -0.953,-10.288 21.337,-28.957 22.289,-18.67 33.91,-16.193 33.91,-16.193 0,0 10.097,-2.667 13.145,7.429 3.048,10.097 -3.81,18.099 -3.81,18.099 l -8.192,7.81 -8.763,3.62 -5.906,0.953 c 0,0 -30.672,1.333 -36.577,9.525 0,0 -5.546,1.373 -5.144,-2.286 z"
   id="path5" />
                <path
   d="m 390.429,507.433 c 0,0 14.836,17.518 29.852,27.349 l -24.668,25.919 c 0,0 -18.233,-15.194 -27.529,-31.639 -9.295,-16.445 -7.507,-15.015 -7.507,-15.015 0,0 -3.358,-7.852 -1.251,-15.016 0.893,-3.038 27.391,-27.654 43.917,-48.423 16.525,-20.77 22.363,-45.144 26.931,-55.288 4.569,-10.145 4.442,-9.383 6.473,-10.399 2.03,-1.015 3.414,3.028 3.358,3.911 -0.055,0.882 2.405,21.919 -1.971,35.237 -4.376,13.319 -5.898,17.885 -15.031,36.15 -9.132,18.265 -23.671,38.3 -32.574,47.214 z"
   id="path6" />
                <path
   d="m 552.993,324.863 c 0,0 -2.88,-12.872 19.138,-40.479 0,0 31.673,16.259 48.102,53.351 16.429,37.092 5.928,43.867 5.928,43.867 0,0 -16.947,-26.038 -38.282,-38.62 -21.335,-12.582 -25.462,-15.085 -34.886,-18.119 z"
   id="path7" />
                <path
   d="m 512.069,418.274 c 0,0 9.783,-18.859 38.347,-22.59 4.187,-0.547 13.948,-0.557 13.948,-0.557 0,0 24.735,1.328 32.649,12.647 7.914,11.318 7.914,16.38 7.914,20.797 0,4.417 0.276,12.423 -3.221,17.76 -3.496,5.337 -5.375,5.39 -7.863,5.495 -0.892,0.037 -2.513,-0.968 -3.327,-1.875 -1.067,-1.191 -2.074,-2.367 -2.076,-2.368 -0.375,-0.208 -7.163,-8.062 -7.163,-8.062 0,0 -7.269,-9.846 -15.091,-12.239 0,0 -15.552,-6.717 -26.135,-7.637 -10.582,-0.921 -13.081,-1.361 -27.982,-1.371 z"
   id="path8" />
            </g>
            <g
   id="Mund"
   transform="translate(1.33765,0.0946741)">
                <path
   d="m 562.662,633.002 -0.035,40.318 31.856,-68.321 -64.72,-58.589 -11.241,14.136 9.708,21.801 c 0,0 -86.6,71.137 -234.481,9.591 l 1.739,-24.428 -36.122,40.192 c 0,0 11.905,41.675 24.624,56.98 0,0 7.733,8.895 11.091,-2.297 0,0 -0.051,-6.689 -1.577,-9.131 l 2.925,0.024 c 0,0 6.684,15.169 57.406,32.559 50.722,17.39 103.024,0.395 103.024,0.395 0,0 56.484,-13.873 105.803,-53.23 z"
   id="path9" />
                <path
   d="m 539.693,595.441 17.982,21.242 c 0,0 -56.496,55.572 -151.327,58.942 -88.87,3.158 -113.91,-58.644 -116.484,-60.179 0,0 -2.604,-2.491 2.874,-0.189 5.478,2.302 26.093,11.371 42.291,14.061 16.199,2.689 32.397,7.426 45.906,7.875 13.509,0.448 44.522,0.799 44.522,0.799 0,0 25.276,-0.823 61.604,-14.343 36.327,-13.519 52.632,-28.208 52.632,-28.208 z"
   style="fill:#ffffff"
   id="path10" />
            </g>
        </g>
    </g>
    <defs
   id="defs19">
        <linearGradient
   id="_Linear1"
   x1="0"
   y1="0"
   x2="1"
   y2="0"
   gradientUnits="userSpaceOnUse"
   gradientTransform="matrix(1057.6,0,0,1057.6,126.562,655.292)"><stop
     offset="0"
     style="stop-color:rgb(97,44,117);stop-opacity:1"
     id="stop10" /><stop
     offset="0.3"
     style="stop-color:rgb(123,81,144);stop-opacity:1"
     id="stop11" /><stop
     offset="0.5"
     style="stop-color:rgb(191,153,195);stop-opacity:1"
     id="stop12" /><stop
     offset="0.7"
     style="stop-color:rgb(123,81,144);stop-opacity:1"
     id="stop13" /><stop
     offset="1"
     style="stop-color:rgb(97,44,117);stop-opacity:1"
     id="stop14" /></linearGradient>
        <linearGradient
   id="_Linear2"
   x1="0"
   y1="0"
   x2="1"
   y2="0"
   gradientUnits="userSpaceOnUse"
   gradientTransform="matrix(1018.58,0,0,1018.58,-128.575,220.053)"><stop
     offset="0"
     style="stop-color:rgb(97,44,117);stop-opacity:1"
     id="stop15" /><stop
     offset="0.3"
     style="stop-color:rgb(123,81,144);stop-opacity:1"
     id="stop16" /><stop
     offset="0.5"
     style="stop-color:rgb(191,153,195);stop-opacity:1"
     id="stop17" /><stop
     offset="0.7"
     style="stop-color:rgb(123,81,144);stop-opacity:1"
     id="stop18" /><stop
     offset="1"
     style="stop-color:rgb(97,44,117);stop-opacity:1"
     id="stop19" /></linearGradient>
    </defs>
</svg>

<?xml version="1.0" encoding="UTF-8" standalone="no"?>
<!DOCTYPE svg PUBLIC "-//W3C//DTD SVG 1.1//EN" "http://www.w3.org/Graphics/SVG/1.1/DTD/svg11.dtd">
<svg width="100%" height="100%" viewBox="0 0 3000 3000" version="1.1" xmlns="http://www.w3.org/2000/svg" xmlns:xlink="http://www.w3.org/1999/xlink" xml:space="preserve" xmlns:serif="http://www.serif.com/" style="fill-rule:evenodd;clip-rule:evenodd;stroke-linecap:round;stroke-linejoin:round;stroke-miterlimit:1.5;">
    <g transform="matrix(3,0,0,3,0,0)">
        <rect id="M" x="0" y="0" width="1000" height="1000" style="fill:none;"/>
        <g id="M1" serif:id="M">
            <g id="Rings" transform="matrix(1,0,0,1,1.33765,0.0946741)">
                <g transform="matrix(0.924534,0,0,0.933291,-49.6436,-50.6485)">
                    <circle cx="593.062" cy="655.292" r="466.5" style="stroke:black;stroke-width:1.08px;"/>
                </g>
                <g transform="matrix(0.86292,0,0,0.868595,-14.0478,-8.49513)">
                    <circle cx="593.062" cy="655.292" r="466.5" style="fill:url(#_Linear1);stroke:black;stroke-width:1.16px;"/>
                </g>
            </g>
            <g id="Head" transform="matrix(1,0,0,1,1.33765,0.0946741)">
                <path d="M745.225,677.052C745.225,677.052 718.183,723.122 685.634,751.666C685.634,751.666 708.669,804.747 624.04,863.837C539.41,922.927 488.833,922.927 430.745,877.858C430.745,877.858 262.988,856.839 212.411,709.601C212.411,709.601 201.716,680.951 200.237,668.528C200.237,668.528 186.164,621.719 191.506,544.637C191.506,544.637 192.651,498.464 205.243,450.384C217.835,402.305 219.743,390.857 228.138,374.831C215.953,376.981 177.559,307.548 193.032,253.869C193.032,253.869 191.887,244.153 204.098,214.771C204.098,214.771 196.466,157.915 224.704,118.231C224.704,118.231 233.098,92.15 296.441,54.888C296.441,54.888 290.336,92.035 293.007,115.693C293.007,115.693 296.441,147.746 318.573,143.167C318.573,143.167 342.613,141.259 377.719,88.982C377.719,88.982 399.851,59.219 450.983,55.021C450.983,55.021 479.602,58.456 490.668,66.087C490.668,66.087 529.207,2.744 581.484,3.508C581.484,3.508 635.288,1.981 668.486,62.272C668.486,62.272 723.434,55.785 760.447,85.93C760.447,85.93 793.263,108.443 807,152.325C807,152.325 873.014,179.418 886.37,248.103C886.37,248.103 896.673,293.893 882.172,360.288C867.672,426.684 841.725,491.935 815.014,532.001C815.014,532.001 848.151,599.512 819.593,635.41C790.852,671.539 747.32,679.147 745.225,677.052Z"/>
            </g>
            <g id="Hair" transform="matrix(1,0,0,1,1.33765,0.0946741)">
                <path d="M277.17,273.13C277.17,273.13 240.666,345.043 241.396,345.043C241.396,345.043 218.763,327.521 222.414,265.829C222.414,265.829 223.021,235.043 236.162,218.251C236.162,218.251 226.901,187.148 240.727,156.229C240.727,156.229 243.992,140.098 262.236,119.357C262.236,119.357 271.262,166.023 298.532,171.017C298.532,171.017 320.311,184.537 352.304,161.606C385.527,137.793 398.394,108.603 406.651,105.722C406.651,105.722 422.015,87.286 446.98,87.094C446.98,87.094 475.594,84.022 499.215,111.868C499.215,111.868 519.956,69.427 546.842,49.454C546.842,49.454 566.238,30.25 590.051,35.627C590.051,35.627 619.708,36.079 651.312,95.16C651.312,95.16 710.757,82.418 742.449,112.185C742.449,112.185 768.189,123.191 781.439,176.519C781.439,176.519 827.529,191.245 842.701,225.429C842.701,225.429 853.839,237.143 858.064,275.167C858.064,275.167 860.753,329.761 849.806,366.003C838.86,402.245 831.754,424.906 831.754,424.906C831.754,424.906 808.53,384.385 758.586,345.017C758.586,345.017 789.877,322.548 795.638,292.013C795.638,292.013 806.008,244.031 744.363,231.136C744.363,231.136 715.941,225.155 679.261,231.492C642.581,237.83 645.078,238.022 645.078,238.022C645.078,238.022 619.728,195.595 565.188,162.741C565.188,162.741 537.15,193.646 515.834,196.334C515.834,196.334 493.961,202.48 486.664,196.526L468.996,190.765L455.169,185.196C455.169,185.196 429.435,176.938 414.072,176.554C414.072,176.554 384.69,171.561 358.956,207.857C358.956,207.857 347.241,226.869 321.316,253.563C321.316,253.563 305.232,271.957 277.17,273.13Z" style="fill:url(#_Linear2);"/>
            </g>
            <g id="Face" transform="matrix(1,0,0,1,1.33765,0.0946741)">
                <path d="M435.39,208.04C435.39,208.04 469.07,223.135 488.878,225.526C508.686,227.916 525.957,223.193 525.957,223.193C525.957,223.193 538.551,222.115 568.216,199.032C568.216,199.032 595.552,217.695 607.254,234.632C618.956,251.569 615.107,242.947 632.198,271.124C632.198,271.124 678.236,255.727 714.111,257.42C749.987,259.114 756.762,265.273 756.762,265.273C756.762,265.273 767.078,271.432 767.694,279.284C767.694,279.284 770.62,289.447 763.537,299.301C756.454,309.155 753.067,312.081 753.067,312.081L739.671,324.091L705.181,346.263L721.964,355.655C721.964,355.655 748.909,371.668 770.466,393.224C792.022,414.781 793.254,418.014 793.254,418.014L808.035,439.57L818.813,457.277L812.962,469.287C812.962,469.287 782.96,432.876 725.198,391.685C725.198,391.685 757.818,433.485 764.438,444.879C769.701,453.936 782.915,474.75 782.915,474.75C782.915,474.75 792,489.994 794.001,498.308C794.001,498.308 743.169,455.833 729.486,453.964C729.486,453.964 763.493,495.493 774.013,512.807C784.533,530.121 800.094,558.613 801.409,573.735C802.724,588.858 806.771,602.872 793.738,618.884C786.067,628.308 778.177,635.321 755.603,643.43C733.029,651.54 725.796,649.129 725.796,649.129C725.796,649.129 701.546,694.522 670.786,723.645C665.046,729.08 656.321,743.371 638.13,759.589C619.939,775.807 570.024,816.298 570.024,816.298C570.024,816.298 625.25,802.242 643.585,787.562C643.585,787.562 649.195,798.401 637.48,811.791C625.764,825.18 603.855,844.503 581.641,856.675C559.427,868.847 532.497,878.888 513.174,878.28C493.851,877.671 482.896,877.063 480.462,872.65C480.462,872.65 520.02,852.262 532.801,839.482C532.801,839.482 496.392,856.141 453.531,850.893C446.076,849.98 399.408,840.92 376.379,831.902C379.845,832.769 350.333,822.944 337.766,813.193C325.199,803.443 304.398,797.593 273.197,756.424C241.995,715.256 231.378,675.914 226.612,644.62C221.845,613.325 218.811,549.139 225.745,509.321C232.678,469.504 246.112,414.035 250.879,402.984C255.646,391.934 276.664,325.532 294.214,300.497C294.214,300.497 320.649,292.796 336.033,278.062C351.417,263.329 355.317,260.078 367.667,244.478C380.018,228.877 379.151,227.577 379.151,227.577L386.518,218.26L393.452,211.543C393.452,211.543 406.692,198.904 435.39,208.04Z" style="fill:white;"/>
            </g>
            <g id="Eyes--Nose--Brows" serif:id="Eyes, Nose, Brows" transform="matrix(1,0,0,1,1.33765,0.0946741)">
                <g transform="matrix(1.04616,0.094697,-0.10241,1.13138,12.5606,-69.5428)">
                    <ellipse cx="339.273" cy="402.844" rx="21.107" ry="34.525"/>
                </g>
                <path d="M288.492,360.459C288.492,360.459 287.539,350.171 309.829,331.502C332.118,312.832 343.739,315.309 343.739,315.309C343.739,315.309 353.836,312.642 356.884,322.738C359.932,332.835 353.074,340.837 353.074,340.837L344.882,348.647L336.119,352.267L330.213,353.22C330.213,353.22 299.541,354.553 293.636,362.745C293.636,362.745 288.09,364.118 288.492,360.459Z"/>
                <path d="M390.429,507.433C390.429,507.433 405.265,524.951 420.281,534.782L395.613,560.701C395.613,560.701 377.38,545.507 368.084,529.062C358.789,512.617 360.577,514.047 360.577,514.047C360.577,514.047 357.219,506.195 359.326,499.031C360.219,495.993 386.717,471.377 403.243,450.608C419.768,429.838 425.606,405.464 430.174,395.32C434.743,385.175 434.616,385.937 436.647,384.921C438.677,383.906 440.061,387.949 440.005,388.832C439.95,389.714 442.41,410.751 438.034,424.069C433.658,437.388 432.136,441.954 423.003,460.219C413.871,478.484 399.332,498.519 390.429,507.433Z"/>
                <path d="M552.993,324.863C552.993,324.863 550.113,311.991 572.131,284.384C572.131,284.384 603.804,300.643 620.233,337.735C636.662,374.827 626.161,381.602 626.161,381.602C626.161,381.602 609.214,355.564 587.879,342.982C566.544,330.4 562.417,327.897 552.993,324.863Z"/>
                <path d="M512.069,418.274C512.069,418.274 521.852,399.415 550.416,395.684C554.603,395.137 564.364,395.127 564.364,395.127C564.364,395.127 589.099,396.455 597.013,407.774C604.927,419.092 604.927,424.154 604.927,428.571C604.927,432.988 605.203,440.994 601.706,446.331C598.21,451.668 596.331,451.721 593.843,451.826C592.951,451.863 591.33,450.858 590.516,449.951C589.449,448.76 588.442,447.584 588.44,447.583C588.065,447.375 581.277,439.521 581.277,439.521C581.277,439.521 574.008,429.675 566.186,427.282C566.186,427.282 550.634,420.565 540.051,419.645C529.469,418.724 526.97,418.284 512.069,418.274Z"/>
            </g>
            <g id="Mund" transform="matrix(1,0,0,1,1.33765,0.0946741)">
                <path d="M562.662,633.002L562.627,673.32L594.483,604.999L529.763,546.41L518.522,560.546L528.23,582.347C528.23,582.347 441.63,653.484 293.749,591.938L295.488,567.51L259.366,607.702C259.366,607.702 271.271,649.377 283.99,664.682C283.99,664.682 291.723,673.577 295.081,662.385C295.081,662.385 295.03,655.696 293.504,653.254L296.429,653.278C296.429,653.278 303.113,668.447 353.835,685.837C404.557,703.227 456.859,686.232 456.859,686.232C456.859,686.232 513.343,672.359 562.662,633.002Z"/>
                <path d="M539.693,595.441L557.675,616.683C557.675,616.683 501.179,672.255 406.348,675.625C317.478,678.783 292.438,616.981 289.864,615.446C289.864,615.446 287.26,612.955 292.738,615.257C298.216,617.559 318.831,626.628 335.029,629.318C351.228,632.007 367.426,636.744 380.935,637.193C394.444,637.641 425.457,637.992 425.457,637.992C425.457,637.992 450.733,637.169 487.061,623.649C523.388,610.13 539.693,595.441 539.693,595.441Z" style="fill:white;"/>
            </g>
        </g>
    </g>
    <defs>
        <linearGradient id="_Linear1" x1="0" y1="0" x2="1" y2="0" gradientUnits="userSpaceOnUse" gradientTransform="matrix(1057.6,0,0,1057.6,126.562,655.292)"><stop offset="0" style="stop-color:rgb(97,44,117);stop-opacity:1"/><stop offset="0.3" style="stop-color:rgb(123,81,144);stop-opacity:1"/><stop offset="0.5" style="stop-color:rgb(191,153,195);stop-opacity:1"/><stop offset="0.7" style="stop-color:rgb(123,81,144);stop-opacity:1"/><stop offset="1" style="stop-color:rgb(97,44,117);stop-opacity:1"/></linearGradient>
        <linearGradient id="_Linear2" x1="0" y1="0" x2="1" y2="0" gradientUnits="userSpaceOnUse" gradientTransform="matrix(1018.58,0,0,1018.58,-128.575,220.053)"><stop offset="0" style="stop-color:rgb(97,44,117);stop-opacity:1"/><stop offset="0.3" style="stop-color:rgb(123,81,144);stop-opacity:1"/><stop offset="0.5" style="stop-color:rgb(191,153,195);stop-opacity:1"/><stop offset="0.7" style="stop-color:rgb(123,81,144);stop-opacity:1"/><stop offset="1" style="stop-color:rgb(97,44,117);stop-opacity:1"/></linearGradient>
    </defs>
</svg>
